X:1
T:Title
%%score ( 1 2 ) ( 3 4 )
L:1/8
Q:1/4=100
M:4/4
K:E
V:1 treble nm="Midi_20"
V:2 treble 
V:3 bass nm="Midi_20"
V:4 bass 
V:1
"^Pilgrims (11 10. 11 10. & refrain)""^Henry Smart\n(1813-1879)""^F. W. Faber\n(1814-63)""^Hark, hark, my soul!" G4 B2 A2 | %1
 G6 F2 | E2 F2 G2 A2 | G4 F4 || B4 e2 d2 | c6 B2 | A2 F2 G2 A2 | F8 || G4 B2 A2 | G6 F2 | %10
 E2 F2 G2 ^A2 | c4 B4 || e4 d2 c2 | B2 F2 G2 c2 | B4 ^A4 | B8 || F4 G2 A2 | B4 E4 | c4 B2 A2 | %19
 G8 || e4 d2 c2 | B2 G2 E2 A2 | G2 G2 A2 F2 | E8 |] %24
V:2
 E4 F2 F2 | E4 D4 | E2 D2 E2 F2 | E4 D4 || E4 E2 E2 | E6 E2 | D2 F2 E2 F2 | D8 || E4 E2 F2 | %9
w: Hark, hark my|soul! an-|gel- ic songs are|swell- ing|O'er earth's green|fields and|o- cean's wave- beat|shore:|How sweet the|
w: On- ward we|go, for|still we hear them|sing- ing|'Come, wea- ry|souls, for|Je- sus bids you|come',|And through the|
w: Far, far a-|way, like|bells at eve- ning|peal- ing,|The voice of|Je- sus|sounds o'er land and|sea,|And la- den|
w: Rest comes at|length; though|life be long and|drea- ry,|The day must|dawn, and|dark- some night be|past;|Faith's jour- ney|
w: An- gels, sing|on, your|faith- ful wat- ches|keep- ing,|Sing us sweet|frag- ments|of the songs a-|bove,|Till morn- ing's|
 E4 D4 | E2 D2 E2 E2 | F4 F4 || E4 F2 F2 | F2 F2 E2 G2 | F6 E2 | D8 || D4 D2 D2 | E4 E4 | %18
w: truth those|bless- ed strains are|tell- ing|Of that new|life when sin shall|be no|more.|||
w: dark, its|ech- oes sweet- ly|ring- ing,|The mu- sic|of the Gos- pel|leads us|home.|||
w: souls, by|thou- sands meek- ly|steal- ing,|Kind Shep- herd,|turn their wea- ry|steps to|Thee.|||
w: ends in|wel- comes to the|wea- ry,|And heaven, the|heart's true home, will|come at|last.|||
w: joy shall|end the night of|weep- ing,|And life's long|sha- dows break in|cloud- less|love.|||
 E4 D2 D2 | E8 || E4 F2 F2 | (G2 B,2) C2 F2 | E2 E2 D2 D2 | E8 |] %24
w: |||wel\- * come the|||
w: ||||||
w: ||||||
w: ||||||
w: ||||||
V:3
 B,4 B,2 B,2 | B,6 A,2 | G,2 G,2 C2 C2 | B,4 B,4 || B,4 G,2 B,2 | A,6 B,2 | B,2 B,2 B,2 C2 | B,8 || %8
w: ||||||||
 B,4 B,2 C2 | B,4 A,4 | G,2 G,2 C2 C2 | F,4 B,4 || B,4 B,2 ^A,2 | B,2 B,2 B,2 E2 | D4 C4 | B,8 || %16
w: ||||||||
 B,4 B,2 B,2 | B,4 B,4 | (A,2 G,2) F,2 F,2 | E,8 || (A,2 C2) B,2 A,2 | G,4 A,2 C2 | %22
w: An- gels of|Je- sus,|an\- * gels of|light,|Sing * ing to||
 B,2 B,2 F,2 A,2 | G,8 |] %24
w: pil- grims of the|night!|
V:4
 E,4 D,2 D,2 | E,4 B,,4 | C,2 C,2 C,2 A,,2 | B,,4 B,,4 || G,4 E,2 G,2 | A,6 G,2 | %6
 F,2 D,2 E,2 A,,2 | B,,8 || E,4 G,,2 A,,2 | B,,6 ^B,,2 | C,2 C,2 C,2 C,2 | D,4 D,4 || G,4 F,2 E,2 | %13
 D,2 D,2 E,2 C,2 | F,4 F,4 | B,,8 || A,4 A,2 A,2 | G,4 G,,4 | A,,4 B,,2 B,,2 | C,8 || C,4 D,2 D,2 | %21
 E,4 A,2 F,2 | B,2 B,2 B,,2 B,,2 | E,8 |] %24

